vsi/symbol-ruler_light.svg

<svg viewBox="0 0 16 16" fill="none" xmlns="http://www.w3.org/2000/svg" height="1em" width="1em">
  <path fill-rule="evenodd" clip-rule="evenodd" d="M4.00024 1L3.00024 2V14L4.00024 15H12.0002L13.0002 14V2L12.0002 1H4.00024ZM4.00024 3V2H12.0002V14H4.00024V13H6.00024V12H4.00024V10H8.00024V9H4.00024V7H6.00024V6H4.00024V4H8.00024V3H4.00024Z" fill="#424242"/>
</svg>

<svg viewBox="0 0 16 16" fill="none" xmlns="http://www.w3.org/2000/svg" height="1em" width="1em">
  <path fill-rule="evenodd" clip-rule="evenodd" d="M4 1 3 2v12l1 1h8l1-1V2l-1-1H4Zm0 2V2h8v12H4v-1h2v-1H4v-2h4V9H4V7h2V6H4V4h4V3H4Z" fill="#424242"/>
</svg>
